X: 25825
T: Master Crowley's
R: reel
M: 4/4
K: Eminor
ED|B,E ~E2 B,EGE|FDA,D FDA,D|B,EGE CEGE|FAdA FEED|
B,E ~E2 B,EGE|FDA,D FDA,D|B,EGE CEGE|FAdA FEED|
B,E ~E2 A,E^CE|FDA,D FDA,D|B,EGE CEGE|FAdA FEED|
B,EE^D EFGE|FDA,^G, A,DFD|B,EGE CEGE|FAdA FE ~E2||
eb^ab fgeg|fdad bdad|eb^ab fge^c|dBAc BE ~E2|
eb^ab fgeg|fdad bdad|EFGA B2 dB|AFDF GE ~E2|
eb^ab fgeg|fd (3ddd bdad|eb^ab f3 e|dBAc BE ~E2|
eb^ab fgeg|fdad bdad|EFGA B2 dB|AFDF GE ~E2||

